assets/ping-pong-bot.svg

<?xml version="1.0"?>
<svg width="400" height="400" xmlns="http://www.w3.org/2000/svg" xmlns:svg="http://www.w3.org/2000/svg" xmlns:xlink="http://www.w3.org/1999/xlink">
 <!-- Created with SVG-edit - https://github.com/SVG-Edit/svgedit-->
 <defs>
  <symbol height="278.86" id="svg_24" version="1.1" viewBox="0 0 138.30096109824444 139.43001089805875" width="276.6" xmlns="http://www.w3.org/2000/svg">
   <!-- svg-source:excalidraw -->
   <defs>
    <style class="style-fonts">@font-face {
        font-family: &quot;Virgil&quot;;
        src: url(&quot;https://excalidraw.com/Virgil.woff2&quot;);
      }
      @font-face {
        font-family: &quot;Cascadia&quot;;
        src: url(&quot;https://excalidraw.com/Cascadia.woff2&quot;);
      }</style>
   </defs>
   <g stroke-linecap="round" transform="translate(10 10) rotate(0 59.15048054912222 59.71500544902938)">
    <path d="m0,0l118.3,0l0,119.43l-118.3,0" fill="#000" stroke-width="0"/>
    <path d="m0,0c25.42,0 50.84,0 118.3,0m-118.3,0c46.51,0 93.01,0 118.3,0m0,0c0,44.18 0,88.37 0,119.43m0,-119.43c0,30.84 0,61.68 0,119.43m0,0c-28.59,0 -57.19,0 -118.3,0m118.3,0c-37.06,0 -74.12,0 -118.3,0m0,0c0,-30.96 0,-61.92 0,-119.43m0,119.43c0,-29.71 0,-59.41 0,-119.43" fill="none" stroke="#000000" stroke-width="4"/>
   </g>
   <g stroke-linecap="round" transform="translate(55.58727696665301 29.20279118903636) rotate(22.887313092180193 23.360208251557196 29.50763033635394)">
    <path d="m9.58,8.33c0,0 0,0 0,0m0,0c0,0 0,0 0,0m3.19,21.76c6.49,-5.06 9.4,-18.23 19.38,-19.55m-21.94,22.56c1.77,-5.87 5.75,-9.47 19.24,-24.04m-16.77,41.5c14.25,-9.14 22.74,-24.82 33.05,-37.08m-32.19,37.37c8.96,-8.1 15.95,-15.88 32.34,-34.88m-25.01,51.68c13.88,-16.26 27.62,-22.83 29.66,-33.33m-25.22,30.56c3.33,-6.51 9.32,-13.48 28.6,-35.19m-36.96,28.54c0,0 0,0 0,0m0,0c0,0 0,0 0,0m21,-3.76c-17.89,-9.45 -28.29,-18.42 -33.38,-32.36m31.32,31.34c-11.19,-9.01 -22.32,-17.8 -36.73,-29.79m48.72,15.53c-8.42,-7.93 -19.76,-15.24 -39.87,-32.94m37.37,35.75c-13.97,-11.73 -25.46,-23.77 -37.45,-32.93m42.71,10.98c-7.67,-7.5 -17.32,-12.75 -31.09,-20.98m30.47,24.39c-5.76,-8.13 -13.04,-11.17 -27.27,-24.27" fill="none" stroke="#ffffff" stroke-width="2"/>
    <path d="m21.03,1.37c4.88,-0.41 11.52,0.43 15.83,4.32c4.31,3.89 8.79,12.55 10.03,19.03c1.24,6.48 -0.02,14.5 -2.59,19.85c-2.58,5.34 -8.29,9.94 -12.84,12.23c-4.55,2.28 -10,3.69 -14.44,1.49c-4.45,-2.2 -9.37,-9.06 -12.22,-14.71c-2.85,-5.65 -5.67,-13.31 -4.88,-19.18c0.78,-5.86 3.25,-12.57 9.61,-16.02c6.36,-3.44 22.73,-6.51 28.54,-4.64c5.8,1.86 6.97,15.39 6.29,15.81m-6.23,-8.26c2.7,4.13 5.45,8.69 5.78,14.98c0.33,6.28 -0.91,17.84 -3.8,22.74c-2.9,4.91 -8.92,5.42 -13.58,6.7c-4.66,1.29 -10.33,3.43 -14.37,1.02c-4.04,-2.42 -7.88,-9.02 -9.87,-15.51c-1.99,-6.49 -3.88,-16.8 -2.08,-23.41c1.8,-6.62 8.41,-13.78 12.89,-16.26c4.49,-2.48 9.24,0.18 14.02,1.37c4.77,1.18 12.09,4.57 14.62,5.72c2.53,1.15 0.96,0.17 0.55,1.16" fill="none" stroke="#ffffff" stroke-width="4"/>
   </g>
   <g stroke-linecap="round" transform="translate(32.60123924499567 39.68882826237859) rotate(0 7.417286225896532 7.308232573156602)">
    <path d="m8.67,-0.21c1.34,0.17 1.88,1.49 2.93,2.55c1.05,1.07 3.18,2.45 3.38,3.85c0.2,1.39 -1.22,3.29 -2.17,4.51c-0.96,1.22 -2.12,2.21 -3.56,2.81c-1.44,0.59 -3.7,1.17 -5.07,0.76c-1.37,-0.4 -2.36,-1.66 -3.14,-3.21c-0.78,-1.55 -1.95,-4.44 -1.54,-6.11c0.41,-1.68 2.3,-3.12 3.99,-3.94c1.68,-0.82 5.11,-1.01 6.11,-0.97c1,0.03 0.17,1.18 -0.1,1.16m-5.93,0.81c1.36,-0.63 4.38,-1.27 5.98,-0.95c1.6,0.32 2.89,1.72 3.61,2.85c0.72,1.13 0.88,2.41 0.72,3.92c-0.17,1.5 -0.97,4.08 -1.74,5.1c-0.77,1.02 -1.19,0.78 -2.89,1.01c-1.71,0.22 -5.61,1.29 -7.35,0.35c-1.74,-0.94 -2.72,-4.12 -3.08,-5.99c-0.35,-1.88 0.17,-4.23 0.93,-5.26c0.75,-1.03 2.99,-0.46 3.61,-0.92c0.62,-0.47 -0.24,-1.8 0.12,-1.87" fill="#ffffff" stroke-width="0"/>
    <path d="m6.89,-0.59c1.48,-0.26 2.53,1.1 3.93,2.02c1.4,0.93 4.07,2.15 4.48,3.53c0.41,1.38 -1.13,3.36 -2.01,4.76c-0.88,1.4 -1.84,2.72 -3.28,3.64c-1.45,0.91 -4.1,2.27 -5.41,1.86c-1.31,-0.42 -1.73,-2.96 -2.46,-4.37c-0.72,-1.4 -2.03,-2.52 -1.87,-4.05c0.15,-1.54 1.47,-3.99 2.82,-5.17c1.35,-1.18 3.99,-1.77 5.28,-1.9c1.29,-0.13 2.57,1.04 2.45,1.11m-2.29,-1.94c1.59,-0.01 1.86,2.96 2.88,3.94c1.03,0.99 2.94,0.45 3.25,1.95c0.31,1.51 -0.49,5.58 -1.38,7.08c-0.88,1.51 -2.61,1.65 -3.93,1.97c-1.32,0.33 -2.68,0.26 -3.97,-0.01c-1.3,-0.26 -2.96,-0.35 -3.8,-1.56c-0.84,-1.21 -1.55,-3.76 -1.24,-5.72c0.31,-1.95 1.76,-4.94 3.1,-6c1.33,-1.06 4.13,-0.3 4.92,-0.35c0.78,-0.04 -0.25,-0.02 -0.22,0.08" fill="none" stroke="#ffffff" stroke-width="4"/>
   </g>
   <g stroke-linecap="round" transform="translate(51.98193132252709 80.66717306988176) rotate(31.735202996048784 4.616670245875866 16.715934208556973)">
    <path d="m2.46,-1.71l2.99,3.28l4.97,-0.4l-0.44,31.59l-1.28,1.6l-8.15,-0.02l0.38,-4.76l-2.02,-26.55l2.33,-2.36" fill="#ffffff" stroke-width="0"/>
    <path d="m2.31,0m0,0c1.59,0.18 1.92,-0.21 4.62,0m-4.62,0c1.18,0.2 2.68,-0.22 4.62,0m0,0c3.46,1.13 4.04,-0.68 2.3,2.31m-2.3,-2.31c0.69,1.75 1.07,-1.27 2.3,2.31m0,0c-1.78,10.32 0.79,15.86 0,28.81m0,-28.81c0.36,9.35 -0.15,21.04 0,28.81m0,0c-0.42,1.65 -2.61,1.59 -2.3,2.31m2.3,-2.31c-1.69,0.97 -2.29,1.43 -2.3,2.31m0,0c-1.37,-0.08 -3.42,0.33 -4.62,0m4.62,0c-1.31,-0.02 -2.08,-0.24 -4.62,0m0,0c-0.96,1.99 -2.27,-0.31 -2.31,-2.31m2.31,2.31c-1.18,2.08 -3.6,-0.95 -2.31,-2.31m0,0c-0.73,-12.9 1.44,-20.54 0,-28.81m0,28.81c-0.41,-7.11 0.37,-13.1 0,-28.81m0,0c1.56,-1.78 1.69,-1.07 2.31,-2.31m-2.31,2.31c-1.89,-2.13 -0.63,-3.83 2.31,-2.31" fill="none" stroke="#ffffff" stroke-width="2"/>
   </g>
  </symbol>
 </defs>
 <g class="layer">
  <title>Layer 1</title>
  <use id="svg_25" transform="matrix(1.64335 0 0 1.64335 -2.24565 -1.52715)" x="-15.69" xlink:href="#svg_24" y="-16.73"/>
 </g>
</svg>

<svg version="1.1" xmlns="http://www.w3.org/2000/svg" viewBox="0 0 138.30096109824444 139.43001089805875" width="276.6019221964889" height="278.8600217961175">
  <!-- svg-source:excalidraw -->
  
  <defs>
    <style class="style-fonts">
      @font-face {
        font-family: "Virgil";
        src: url("https://excalidraw.com/Virgil.woff2");
      }
      @font-face {
        font-family: "Cascadia";
        src: url("https://excalidraw.com/Cascadia.woff2");
      }
    </style>
    
  </defs>
  <g stroke-linecap="round" transform="translate(10 10) rotate(0 59.15048054912222 59.71500544902938)"><path d="M0 0 L118.3 0 L118.3 119.43 L0 119.43" stroke="none" stroke-width="0" fill="#000"></path><path d="M0 0 C25.42 0, 50.84 0, 118.3 0 M0 0 C46.51 0, 93.01 0, 118.3 0 M118.3 0 C118.3 44.18, 118.3 88.37, 118.3 119.43 M118.3 0 C118.3 30.84, 118.3 61.68, 118.3 119.43 M118.3 119.43 C89.71 119.43, 61.11 119.43, 0 119.43 M118.3 119.43 C81.24 119.43, 44.18 119.43, 0 119.43 M0 119.43 C0 88.47, 0 57.51, 0 0 M0 119.43 C0 89.72, 0 60.02, 0 0" stroke="#000000" stroke-width="4" fill="none"></path></g><g stroke-linecap="round" transform="translate(55.58727696665301 29.20279118903636) rotate(22.887313092180193 23.360208251557196 29.50763033635394)"><path d="M9.58 8.33 C9.58 8.33, 9.58 8.33, 9.58 8.33 M9.58 8.33 C9.58 8.33, 9.58 8.33, 9.58 8.33 M12.77 30.09 C19.26 25.03, 22.17 11.86, 32.15 10.54 M10.21 33.1 C11.98 27.23, 15.96 23.63, 29.45 9.06 M12.68 50.56 C26.93 41.42, 35.42 25.74, 45.73 13.48 M13.54 50.85 C22.5 42.75, 29.49 34.97, 45.88 15.97 M20.87 67.65 C34.75 51.39, 48.49 44.82, 50.53 34.32 M25.31 64.88 C28.64 58.37, 34.63 51.4, 53.91 29.69 M16.95 58.23 C16.95 58.23, 16.95 58.23, 16.95 58.23 M16.95 58.23 C16.95 58.23, 16.95 58.23, 16.95 58.23 M37.95 54.47 C20.06 45.02, 9.66 36.05, 4.57 22.11 M35.89 53.45 C24.7 44.44, 13.57 35.65, -0.84 23.66 M47.88 39.19 C39.46 31.26, 28.12 23.95, 8.01 6.25 M45.38 42 C31.41 30.27, 19.92 18.23, 7.93 9.07 M50.64 20.05 C42.97 12.55, 33.32 7.3, 19.55 -0.93 M50.02 23.46 C44.26 15.33, 36.98 12.29, 22.75 -0.81" stroke="#ffffff" stroke-width="2" fill="none"></path><path d="M21.03 1.37 C25.91 0.96, 32.55 1.8, 36.86 5.69 C41.17 9.58, 45.65 18.24, 46.89 24.72 C48.13 31.2, 46.87 39.22, 44.3 44.57 C41.72 49.91, 36.01 54.51, 31.46 56.8 C26.91 59.08, 21.46 60.49, 17.02 58.29 C12.57 56.09, 7.65 49.23, 4.8 43.58 C1.95 37.93, -0.87 30.27, -0.08 24.4 C0.7 18.54, 3.17 11.83, 9.53 8.38 C15.89 4.94, 32.26 1.87, 38.07 3.74 C43.87 5.6, 45.04 19.13, 44.36 19.55 M38.13 11.29 C40.83 15.42, 43.58 19.98, 43.91 26.27 C44.24 32.55, 43 44.11, 40.11 49.01 C37.21 53.92, 31.19 54.43, 26.53 55.71 C21.87 57, 16.2 59.14, 12.16 56.73 C8.12 54.31, 4.28 47.71, 2.29 41.22 C0.3 34.73, -1.59 24.42, 0.21 17.81 C2.01 11.19, 8.62 4.03, 13.1 1.55 C17.59 -0.93, 22.34 1.73, 27.12 2.92 C31.89 4.1, 39.21 7.49, 41.74 8.64 C44.27 9.79, 42.7 8.81, 42.29 9.8" stroke="#ffffff" stroke-width="4" fill="none"></path></g><g stroke-linecap="round" transform="translate(32.60123924499567 39.68882826237859) rotate(0 7.417286225896532 7.308232573156602)"><path d="M8.67 -0.21 C10.01 -0.04, 10.55 1.28, 11.6 2.34 C12.65 3.41, 14.78 4.79, 14.98 6.19 C15.18 7.58, 13.76 9.48, 12.81 10.7 C11.85 11.92, 10.69 12.91, 9.25 13.51 C7.81 14.1, 5.55 14.68, 4.18 14.27 C2.81 13.87, 1.82 12.61, 1.04 11.06 C0.26 9.51, -0.91 6.62, -0.5 4.95 C-0.09 3.27, 1.8 1.83, 3.49 1.01 C5.17 0.19, 8.6 0, 9.6 0.04 C10.6 0.07, 9.77 1.22, 9.5 1.2 M3.57 2.01 C4.93 1.38, 7.95 0.74, 9.55 1.06 C11.15 1.38, 12.44 2.78, 13.16 3.91 C13.88 5.04, 14.04 6.32, 13.88 7.83 C13.71 9.33, 12.91 11.91, 12.14 12.93 C11.37 13.95, 10.95 13.71, 9.25 13.94 C7.54 14.16, 3.64 15.23, 1.9 14.29 C0.16 13.35, -0.82 10.17, -1.18 8.3 C-1.53 6.42, -1.01 4.07, -0.25 3.04 C0.5 2.01, 2.74 2.58, 3.36 2.12 C3.98 1.65, 3.12 0.32, 3.48 0.25" stroke="none" stroke-width="0" fill="#ffffff"></path><path d="M6.89 -0.59 C8.37 -0.85, 9.42 0.51, 10.82 1.43 C12.22 2.36, 14.89 3.58, 15.3 4.96 C15.71 6.34, 14.17 8.32, 13.29 9.72 C12.41 11.12, 11.45 12.44, 10.01 13.36 C8.56 14.27, 5.91 15.63, 4.6 15.22 C3.29 14.8, 2.87 12.26, 2.14 10.85 C1.42 9.45, 0.11 8.33, 0.27 6.8 C0.42 5.26, 1.74 2.81, 3.09 1.63 C4.44 0.45, 7.08 -0.14, 8.37 -0.27 C9.66 -0.4, 10.94 0.77, 10.82 0.84 M8.53 -1.1 C10.12 -1.11, 10.39 1.86, 11.41 2.84 C12.44 3.83, 14.35 3.29, 14.66 4.79 C14.97 6.3, 14.17 10.37, 13.28 11.87 C12.4 13.38, 10.67 13.52, 9.35 13.84 C8.03 14.17, 6.67 14.1, 5.38 13.83 C4.08 13.57, 2.42 13.48, 1.58 12.27 C0.74 11.06, 0.03 8.51, 0.34 6.55 C0.65 4.6, 2.1 1.61, 3.44 0.55 C4.77 -0.51, 7.57 0.25, 8.36 0.2 C9.14 0.16, 8.11 0.18, 8.14 0.28" stroke="#ffffff" stroke-width="4" fill="none"></path></g><g stroke-linecap="round" transform="translate(51.98193132252709 80.66717306988176) rotate(31.735202996048784 4.616670245875866 16.715934208556973)"><path d="M2.46 -1.71 L5.45 1.57 L10.42 1.17 L9.98 32.76 L8.7 34.36 L0.55 34.34 L0.93 29.58 L-1.09 3.03 L1.24 0.67" stroke="none" stroke-width="0" fill="#ffffff"></path><path d="M2.31 0 M2.31 0 C3.9 0.18, 4.23 -0.21, 6.93 0 M2.31 0 C3.49 0.2, 4.99 -0.22, 6.93 0 M6.93 0 C10.39 1.13, 10.97 -0.68, 9.23 2.31 M6.93 0 C7.62 1.75, 8 -1.27, 9.23 2.31 M9.23 2.31 C7.45 12.63, 10.02 18.17, 9.23 31.12 M9.23 2.31 C9.59 11.66, 9.08 23.35, 9.23 31.12 M9.23 31.12 C8.81 32.77, 6.62 32.71, 6.93 33.43 M9.23 31.12 C7.54 32.09, 6.94 32.55, 6.93 33.43 M6.93 33.43 C5.56 33.35, 3.51 33.76, 2.31 33.43 M6.93 33.43 C5.62 33.41, 4.85 33.19, 2.31 33.43 M2.31 33.43 C1.35 35.42, 0.04 33.12, 0 31.12 M2.31 33.43 C1.13 35.51, -1.29 32.48, 0 31.12 M0 31.12 C-0.73 18.22, 1.44 10.58, 0 2.31 M0 31.12 C-0.41 24.01, 0.37 18.02, 0 2.31 M0 2.31 C1.56 0.53, 1.69 1.24, 2.31 0 M0 2.31 C-1.89 0.18, -0.63 -1.52, 2.31 0" stroke="#ffffff" stroke-width="2" fill="none"></path></g></svg>
